X: 10912
T: CAMERONIAN RANT
R: reel
B: K\"ohler's Violin Repository, v.1, 1885 p.91 #2
F: http://www.archive.org/details/klersviolinrepos01edin
Z: 2012 John Chambers <jc:trillian.mit.edu>
N: There are two "Fine." labels; the final one is probably wrong.  (Play ABCB for 32 bars.)
M: C|
L: 1/8
K: F
uf |\
c>F F/F/F (cF)AF | cF F/F/F c2Ac | B>G G/G/G/ (BG)AG | B>G G/G/G B2A :|
!segno![|] uG |\
Fffg fdcA | Fffg fdcA | Ggga gfed | gfga gfed |
cffg fdcA | FAcf e2(cf) | (e//f//).g/ df (e//f//).g de | (fa)ga (fc)d "_Fine."|: uf |
(cF)(dF) (cF)(AF) | cF F/F/F c2Ac | (BG)(dG) (BG)(AG) | B>G G/G/G "_Fine."B2A !segno!"_D.C.":|

%%sep 2 1 500

